X:104
T:Orchall, A Strathspey
S:Museum for the German Flute v4 p30
M:4/4
L:1/8
Q:1/4=120
K:G Dorian
f|c>F Tc>F c>FA>f |c>F Tc>A      B>G-G>f|c>F Tc>A f>ga>g|f>dTc>A {A}G2G:|
c|f>ga>g  f>c TA>F|f/e/f/g/ a>c cd d>e  |f>ga>f   g>afc |d>fc>A  {A}G2G:|

